X: 1
T: The Rowan Tree
T: 4x32S 4C (Boyd/Southern Cross Album)
T: r4 across, r4 sides
P: The Rowan Tree
C: trad. Scotland, from John Chambers
R: Strathspey
M: 4/4
K: A
A>B \
| "A"c3c "E7"c2B2 | "A"ce3    e2a2 | "D"f3e    f2a2 | "A"f2e2- e2A>B \
| "A"c3c "E7"c2B2 | "A"ce3  "D"f3e | "A"ec3 "E7"B3c | "A"A6 |]
e2 \
| "A"e3a      a3g | "D"g2f2   f2a2 | "A"e3f "F#m"fedc | "B(m)"c3d/c/ "E7"B2A>B \
| "A"c3c "E7"c2B2 | "A"ce3  "D"f3e | "A"ec3  "E7"B3c  | "A"A6 |]
